X: 36
T:Deil Among the Tailors
M:4/4
L:1/8
C:Scots Reel
S:Aly Bain Book
K:A
|:e2 | a2 eg a2 eg | a2 ea fedc | dfBf dfBf | dfba gefg |!
a2 eg a2 eg | a2 ea fedc | defe dcBA | E2 G2 A2 :|!
|: ed | ceAe ceAe | ceAa fedc | dfBf dfBf | dfBb gfed|!
ceAe ceAe | ceAa fedc | defe dcBA | E2 G2 A2:|
